Origami/16x16/apps/TeighaViewer.svg

<svg width="16" height="16" version="1.1" viewBox="0 0 16 16" xmlns="http://www.w3.org/2000/svg">
 <path d="M 7.999999,0 A 8.0000006,8.0000006 0 0 0 0,7.9999994 8.0000006,8.0000006 0 0 0 7.999999,16 8.0000006,8.0000006 0 0 0 16,7.9999994 8.0000006,8.0000006 0 0 0 7.999999,0 Z" style="fill:#ba122b"/>
 <path d="M 4.5,4 A 3.5000004,3.5000004 0 0 0 1,7.5 3.5000004,3.5000004 0 0 0 4.5,11 3.5000004,3.5000004 0 0 0 8,7.5 3.5000004,3.5000004 0 0 0 4.5,4 Z m 0,1 A 2.5000002,2.5000002 0 0 1 7,7.5 2.5000002,2.5000002 0 0 1 4.5,10 2.5000002,2.5000002 0 0 1 2,7.5 2.5000002,2.5000002 0 0 1 4.5,5 Z" style="fill:#ffffff"/>
 <path d="m8 5a5.0000004 5.0000004 0 0 0 -5 5 5.0000004 5.0000004 0 0 0 5 5 5.0000004 5.0000004 0 0 0 5 -5 5.0000004 5.0000004 0 0 0 -5 -5zm0 1a4.0000002 4.0000002 0 0 1 4 4 4.0000002 4.0000002 0 0 1 -4 4 4.0000002 4.0000002 0 0 1 -4 -4 4.0000002 4.0000002 0 0 1 4 -4z" style="fill:#ffffff"/>
 <path d="M 8.5,2 A 4.5000004,4.5000004 0 0 0 4,6.5 4.5000004,4.5000004 0 0 0 8.5,11 4.5000004,4.5000004 0 0 0 13,6.5 4.5000004,4.5000004 0 0 0 8.5,2 Z m 0,1 A 3.5000004,3.5000004 0 0 1 12,6.5 3.5000004,3.5000004 0 0 1 8.5,10 3.5000004,3.5000004 0 0 1 5,6.5 3.5000004,3.5000004 0 0 1 8.5,3 Z" style="fill:#ffffff"/>
</svg>

<svg xmlns="http://www.w3.org/2000/svg" width="16" height="16" version="1.1" viewBox="0 0 16 16">
 <path style="fill:#ba122b" d="M 7.999999,0 A 8.0000006,8.0000006 0 0 0 0,7.9999994 8.0000006,8.0000006 0 0 0 7.999999,16 8.0000006,8.0000006 0 0 0 16,7.9999994 8.0000006,8.0000006 0 0 0 7.999999,0 Z"/>
 <path style="fill:#ffffff" d="M 4.5,4 A 3.5000004,3.5000004 0 0 0 1,7.5 3.5000004,3.5000004 0 0 0 4.5,11 3.5000004,3.5000004 0 0 0 8,7.5 3.5000004,3.5000004 0 0 0 4.5,4 Z m 0,1 A 2.5000002,2.5000002 0 0 1 7,7.5 2.5000002,2.5000002 0 0 1 4.5,10 2.5000002,2.5000002 0 0 1 2,7.5 2.5000002,2.5000002 0 0 1 4.5,5 Z"/>
 <path style="fill:#ffffff" d="M 8,5 A 5.0000004,5.0000004 0 0 0 3,10 5.0000004,5.0000004 0 0 0 8,15 5.0000004,5.0000004 0 0 0 13,10 5.0000004,5.0000004 0 0 0 8,5 Z M 8,6 A 4.0000002,4.0000002 0 0 1 12,10 4.0000002,4.0000002 0 0 1 8,14 4.0000002,4.0000002 0 0 1 4,10 4.0000002,4.0000002 0 0 1 8,6 Z"/>
 <path style="fill:#ffffff" d="M 8.5,2 A 4.5000004,4.5000004 0 0 0 4,6.5 4.5000004,4.5000004 0 0 0 8.5,11 4.5000004,4.5000004 0 0 0 13,6.5 4.5000004,4.5000004 0 0 0 8.5,2 Z m 0,1 A 3.5000004,3.5000004 0 0 1 12,6.5 3.5000004,3.5000004 0 0 1 8.5,10 3.5000004,3.5000004 0 0 1 5,6.5 3.5000004,3.5000004 0 0 1 8.5,3 Z"/>
</svg>
